P3
19 19
255
49 77 121  49 77 121  49 77 121  49 77 121  49 77 121  49 77 121  49 77 121  49 77 121  49 77 121  49 77 121  49 77 121  49 77 121  49 77 121  49 77 121  49 77 121  49 77 121  49 77 121  49 77 121  49 77 121  
49 77 121  49 77 121  49 77 121  49 77 121  49 77 121  49 77 121  49 77 121  49 77 121  49 77 121  49 77 121  49 77 121  49 77 121  49 77 121  49 77 121  49 77 121  49 77 121  49 77 121  49 77 121  49 77 121  
49 77 121  49 77 121  49 77 121  49 77 121  49 77 121  49 77 121  49 77 121  49 77 121  49 77 121  49 77 121  49 77 121  49 77 121  49 77 121  49 77 121  49 77 121  49 77 121  49 77 121  49 77 121  49 77 121  
49 77 121  49 77 121  49 77 121  49 77 121  49 77 121  49 77 121  49 77 121  49 77 121  191 50 255  49 77 121  49 77 121  49 77 121  49 77 121  49 77 121  49 77 121  49 77 121  49 77 121  49 77 121  49 77 121  
49 77 121  49 77 121  49 77 121  49 77 121  49 77 121  49 77 121  191 50 255  191 50 255  191 50 255  191 50 255  49 77 121  49 77 121  49 77 121  0 204 204  49 77 121  49 77 121  49 77 121  49 77 121  49 77 121  
49 77 121  49 77 121  49 77 121  49 77 121  49 77 121  191 50 255  191 50 255  191 50 255  191 50 255  191 50 255  191 50 255  0 204 204  0 204 204  0 204 204  0 204 204  0 204 204  49 77 121  49 77 121  49 77 121  
49 77 121  49 77 121  49 77 121  49 77 121  49 77 121  191 50 255  191 50 255  191 50 255  191 50 255  191 50 255  191 50 255  0 204 204  0 204 204  0 204 204  0 204 204  0 204 204  49 77 121  49 77 121  49 77 121  
49 77 121  49 77 121  49 77 121  49 77 121  191 50 255  191 50 255  191 50 255  191 50 255  191 50 255  191 50 255  0 204 204  0 204 204  0 204 204  0 204 204  0 204 204  0 204 204  0 204 204  49 77 121  49 77 121  
49 77 121  49 77 121  49 77 121  191 50 255  191 50 255  191 50 255  191 50 255  191 50 255  191 50 255  191 50 255  0 204 204  255 55 153  255 55 153  255 55 153  255 55 153  0 204 204  49 77 121  49 77 121  49 77 121  
49 77 121  49 77 121  191 50 255  191 50 255  191 50 255  191 50 255  191 50 255  191 50 255  191 50 255  0 255 217  255 55 153  255 55 153  255 55 153  255 55 153  255 55 153  255 55 153  49 77 121  49 77 121  49 77 121  
49 77 121  49 77 121  191 50 255  191 50 255  191 50 255  191 50 255  191 50 255  191 50 255  191 50 255  0 255 217  255 55 153  255 55 153  255 55 153  255 55 153  255 55 153  255 55 153  49 77 121  49 77 121  49 77 121  
17 30 88  17 30 88  17 30 88  191 50 255  191 50 255  191 50 255  191 50 255  191 50 255  17 30 88  17 30 88  255 55 153  255 55 153  255 55 153  255 55 153  255 55 153  255 55 153  17 30 88  17 30 88  17 30 88  
17 30 88  17 30 88  17 30 88  17 30 88  191 50 255  191 50 255  191 50 255  17 30 88  17 30 88  17 30 88  255 55 153  255 55 153  255 55 153  255 55 153  255 55 153  255 55 153  17 30 88  17 30 88  17 30 88  
17 30 88  17 30 88  17 30 88  17 30 88  17 30 88  17 30 88  17 30 88  17 30 88  17 30 88  17 30 88  17 30 88  255 55 153  255 55 153  255 55 153  255 55 153  17 30 88  17 30 88  17 30 88  17 30 88  
17 30 88  17 30 88  17 30 88  17 30 88  17 30 88  17 30 88  17 30 88  17 30 88  17 30 88  17 30 88  17 30 88  17 30 88  17 30 88  17 30 88  17 30 88  17 30 88  17 30 88  17 30 88  17 30 88  
17 30 88  17 30 88  17 30 88  17 30 88  17 30 88  17 30 88  17 30 88  17 30 88  17 30 88  17 30 88  17 30 88  17 30 88  17 30 88  17 30 88  17 30 88  17 30 88  17 30 88  17 30 88  17 30 88  
17 30 88  17 30 88  17 30 88  17 30 88  17 30 88  17 30 88  17 30 88  17 30 88  17 30 88  17 30 88  17 30 88  17 30 88  17 30 88  17 30 88  17 30 88  17 30 88  17 30 88  17 30 88  17 30 88  
17 30 88  17 30 88  17 30 88  17 30 88  17 30 88  17 30 88  17 30 88  17 30 88  17 30 88  17 30 88  17 30 88  17 30 88  17 30 88  17 30 88  17 30 88  17 30 88  17 30 88  17 30 88  17 30 88  
17 30 88  17 30 88  17 30 88  17 30 88  17 30 88  17 30 88  17 30 88  17 30 88  17 30 88  17 30 88  17 30 88  17 30 88  17 30 88  17 30 88  17 30 88  17 30 88  17 30 88  17 30 88  17 30 88  
