P3
51 51
255
49 77 121  49 77 121  49 77 121  49 77 121  49 77 121  49 77 121  49 77 121  49 77 121  49 77 121  49 77 121  49 77 121  49 77 121  49 77 121  49 77 121  49 77 121  49 77 121  49 77 121  49 77 121  49 77 121  49 77 121  49 77 121  49 77 121  49 77 121  49 77 121  49 77 121  49 77 121  49 77 121  49 77 121  49 77 121  49 77 121  49 77 121  49 77 121  49 77 121  49 77 121  49 77 121  49 77 121  49 77 121  49 77 121  49 77 121  49 77 121  49 77 121  49 77 121  49 77 121  49 77 121  49 77 121  49 77 121  49 77 121  49 77 121  49 77 121  49 77 121  49 77 121  
49 77 121  49 77 121  49 77 121  49 77 121  49 77 121  49 77 121  49 77 121  49 77 121  49 77 121  49 77 121  49 77 121  49 77 121  49 77 121  49 77 121  49 77 121  49 77 121  49 77 121  49 77 121  49 77 121  49 77 121  49 77 121  49 77 121  49 77 121  49 77 121  49 77 121  49 77 121  49 77 121  49 77 121  49 77 121  49 77 121  49 77 121  49 77 121  49 77 121  49 77 121  49 77 121  49 77 121  49 77 121  49 77 121  49 77 121  49 77 121  49 77 121  49 77 121  49 77 121  49 77 121  49 77 121  49 77 121  49 77 121  49 77 121  49 77 121  49 77 121  49 77 121  
49 77 121  49 77 121  49 77 121  49 77 121  49 77 121  49 77 121  49 77 121  49 77 121  49 77 121  49 77 121  49 77 121  49 77 121  49 77 121  49 77 121  49 77 121  49 77 121  49 77 121  49 77 121  49 77 121  49 77 121  49 77 121  49 77 121  49 77 121  49 77 121  49 77 121  49 77 121  49 77 121  49 77 121  49 77 121  49 77 121  49 77 121  49 77 121  49 77 121  49 77 121  49 77 121  49 77 121  49 77 121  49 77 121  49 77 121  49 77 121  49 77 121  49 77 121  49 77 121  49 77 121  49 77 121  49 77 121  49 77 121  49 77 121  49 77 121  49 77 121  49 77 121  
49 77 121  49 77 121  49 77 121  49 77 121  49 77 121  49 77 121  49 77 121  49 77 121  49 77 121  49 77 121  49 77 121  49 77 121  49 77 121  49 77 121  49 77 121  49 77 121  49 77 121  49 77 121  49 77 121  49 77 121  49 77 121  49 77 121  49 77 121  49 77 121  49 77 121  49 77 121  49 77 121  49 77 121  49 77 121  49 77 121  49 77 121  49 77 121  49 77 121  49 77 121  49 77 121  49 77 121  49 77 121  49 77 121  49 77 121  49 77 121  49 77 121  49 77 121  49 77 121  49 77 121  49 77 121  49 77 121  49 77 121  49 77 121  49 77 121  49 77 121  49 77 121  
49 77 121  49 77 121  49 77 121  49 77 121  49 77 121  49 77 121  49 77 121  49 77 121  49 77 121  49 77 121  49 77 121  49 77 121  49 77 121  49 77 121  49 77 121  49 77 121  49 77 121  49 77 121  49 77 121  49 77 121  49 77 121  49 77 121  49 77 121  49 77 121  49 77 121  49 77 121  49 77 121  49 77 121  49 77 121  49 77 121  49 77 121  49 77 121  49 77 121  49 77 121  49 77 121  49 77 121  49 77 121  49 77 121  49 77 121  49 77 121  49 77 121  49 77 121  49 77 121  49 77 121  49 77 121  49 77 121  49 77 121  49 77 121  49 77 121  49 77 121  49 77 121  
49 77 121  49 77 121  49 77 121  49 77 121  49 77 121  49 77 121  49 77 121  49 77 121  49 77 121  49 77 121  49 77 121  49 77 121  49 77 121  49 77 121  49 77 121  49 77 121  49 77 121  49 77 121  49 77 121  49 77 121  49 77 121  49 77 121  49 77 121  49 77 121  49 77 121  49 77 121  49 77 121  49 77 121  49 77 121  49 77 121  49 77 121  191 50 255  191 50 255  191 50 255  191 50 255  191 50 255  191 50 255  191 50 255  49 77 121  49 77 121  49 77 121  49 77 121  49 77 121  49 77 121  49 77 121  49 77 121  49 77 121  49 77 121  49 77 121  49 77 121  49 77 121  
49 77 121  49 77 121  49 77 121  49 77 121  49 77 121  49 77 121  49 77 121  49 77 121  49 77 121  49 77 121  49 77 121  49 77 121  49 77 121  49 77 121  49 77 121  49 77 121  49 77 121  49 77 121  49 77 121  49 77 121  49 77 121  49 77 121  49 77 121  49 77 121  49 77 121  49 77 121  49 77 121  49 77 121  49 77 121  191 50 255  191 50 255  191 50 255  191 50 255  191 50 255  191 50 255  191 50 255  191 50 255  191 50 255  191 50 255  49 77 121  49 77 121  49 77 121  49 77 121  49 77 121  49 77 121  49 77 121  49 77 121  49 77 121  49 77 121  49 77 121  49 77 121  
49 77 121  49 77 121  49 77 121  49 77 121  49 77 121  49 77 121  49 77 121  49 77 121  49 77 121  49 77 121  49 77 121  49 77 121  49 77 121  49 77 121  49 77 121  49 77 121  49 77 121  49 77 121  49 77 121  49 77 121  49 77 121  49 77 121  49 77 121  49 77 121  49 77 121  49 77 121  49 77 121  49 77 121  191 50 255  191 50 255  191 50 255  191 50 255  191 50 255  191 50 255  191 50 255  191 50 255  191 50 255  191 50 255  191 50 255  191 50 255  191 50 255  49 77 121  49 77 121  49 77 121  49 77 121  49 77 121  49 77 121  49 77 121  49 77 121  49 77 121  49 77 121  
49 77 121  49 77 121  49 77 121  49 77 121  49 77 121  49 77 121  49 77 121  49 77 121  49 77 121  49 77 121  49 77 121  49 77 121  49 77 121  49 77 121  49 77 121  49 77 121  49 77 121  49 77 121  49 77 121  49 77 121  49 77 121  49 77 121  49 77 121  49 77 121  49 77 121  49 77 121  49 77 121  191 50 255  191 50 255  191 50 255  191 50 255  191 50 255  191 50 255  191 50 255  191 50 255  191 50 255  191 50 255  191 50 255  191 50 255  191 50 255  191 50 255  191 50 255  191 50 255  49 77 121  49 77 121  49 77 121  49 77 121  49 77 121  49 77 121  49 77 121  49 77 121  
49 77 121  49 77 121  49 77 121  49 77 121  49 77 121  49 77 121  49 77 121  49 77 121  49 77 121  49 77 121  49 77 121  49 77 121  49 77 121  49 77 121  49 77 121  49 77 121  49 77 121  49 77 121  49 77 121  49 77 121  49 77 121  49 77 121  49 77 121  49 77 121  49 77 121  49 77 121  49 77 121  191 50 255  191 50 255  191 50 255  191 50 255  191 50 255  191 50 255  191 50 255  191 50 255  191 50 255  191 50 255  191 50 255  191 50 255  191 50 255  191 50 255  191 50 255  191 50 255  191 50 255  49 77 121  49 77 121  49 77 121  49 77 121  49 77 121  49 77 121  49 77 121  
49 77 121  49 77 121  49 77 121  49 77 121  49 77 121  49 77 121  49 77 121  49 77 121  49 77 121  49 77 121  49 77 121  49 77 121  49 77 121  49 77 121  49 77 121  49 77 121  49 77 121  49 77 121  49 77 121  49 77 121  49 77 121  49 77 121  49 77 121  49 77 121  49 77 121  49 77 121  191 50 255  191 50 255  191 50 255  191 50 255  191 50 255  191 50 255  191 50 255  191 50 255  191 50 255  191 50 255  191 50 255  191 50 255  191 50 255  191 50 255  191 50 255  191 50 255  191 50 255  191 50 255  191 50 255  191 50 255  49 77 121  49 77 121  49 77 121  49 77 121  49 77 121  
49 77 121  49 77 121  49 77 121  49 77 121  49 77 121  49 77 121  49 77 121  49 77 121  49 77 121  49 77 121  49 77 121  49 77 121  49 77 121  49 77 121  49 77 121  49 77 121  49 77 121  49 77 121  49 77 121  49 77 121  49 77 121  49 77 121  49 77 121  49 77 121  49 77 121  49 77 121  191 50 255  191 50 255  191 50 255  191 50 255  191 50 255  191 50 255  191 50 255  191 50 255  191 50 255  191 50 255  191 50 255  191 50 255  191 50 255  191 50 255  191 50 255  191 50 255  191 50 255  191 50 255  191 50 255  191 50 255  191 50 255  191 50 255  49 77 121  49 77 121  49 77 121  
49 77 121  49 77 121  49 77 121  49 77 121  49 77 121  49 77 121  49 77 121  49 77 121  49 77 121  49 77 121  49 77 121  49 77 121  49 77 121  49 77 121  49 77 121  49 77 121  49 77 121  49 77 121  49 77 121  0 204 204  0 204 204  0 204 204  0 204 204  0 204 204  0 204 204  49 77 121  191 50 255  191 50 255  191 50 255  191 50 255  191 50 255  191 50 255  191 50 255  191 50 255  191 50 255  191 50 255  191 50 255  191 50 255  191 50 255  191 50 255  191 50 255  191 50 255  191 50 255  191 50 255  191 50 255  191 50 255  191 50 255  191 50 255  191 50 255  49 77 121  49 77 121  
49 77 121  49 77 121  49 77 121  49 77 121  49 77 121  49 77 121  49 77 121  49 77 121  49 77 121  49 77 121  49 77 121  49 77 121  49 77 121  49 77 121  49 77 121  49 77 121  49 77 121  0 204 204  0 204 204  0 204 204  0 204 204  0 204 204  0 204 204  0 204 204  0 204 204  0 204 204  191 50 255  191 50 255  191 50 255  191 50 255  191 50 255  191 50 255  191 50 255  191 50 255  191 50 255  191 50 255  191 50 255  191 50 255  191 50 255  191 50 255  191 50 255  191 50 255  191 50 255  191 50 255  191 50 255  191 50 255  191 50 255  191 50 255  191 50 255  191 50 255  191 50 255  
49 77 121  49 77 121  49 77 121  49 77 121  49 77 121  49 77 121  49 77 121  49 77 121  49 77 121  49 77 121  49 77 121  49 77 121  49 77 121  49 77 121  49 77 121  49 77 121  0 204 204  0 204 204  0 204 204  0 204 204  0 204 204  0 204 204  0 204 204  0 204 204  0 204 204  0 204 204  191 50 255  191 50 255  191 50 255  191 50 255  191 50 255  191 50 255  191 50 255  191 50 255  191 50 255  191 50 255  191 50 255  191 50 255  191 50 255  191 50 255  191 50 255  191 50 255  191 50 255  191 50 255  191 50 255  191 50 255  191 50 255  191 50 255  191 50 255  191 50 255  191 50 255  
49 77 121  49 77 121  49 77 121  49 77 121  49 77 121  49 77 121  49 77 121  49 77 121  49 77 121  49 77 121  49 77 121  49 77 121  49 77 121  49 77 121  49 77 121  0 204 204  0 204 204  0 204 204  0 204 204  0 204 204  0 204 204  0 204 204  0 204 204  0 204 204  0 204 204  0 204 204  191 50 255  191 50 255  191 50 255  191 50 255  191 50 255  191 50 255  191 50 255  191 50 255  191 50 255  191 50 255  191 50 255  191 50 255  191 50 255  191 50 255  191 50 255  191 50 255  191 50 255  191 50 255  191 50 255  191 50 255  191 50 255  191 50 255  191 50 255  191 50 255  191 50 255  
49 77 121  49 77 121  49 77 121  49 77 121  49 77 121  49 77 121  49 77 121  49 77 121  49 77 121  49 77 121  49 77 121  49 77 121  49 77 121  49 77 121  0 204 204  0 204 204  0 204 204  0 204 204  0 255 217  0 255 217  0 255 217  0 204 204  0 204 204  0 204 204  0 204 204  0 204 204  0 204 204  191 50 255  191 50 255  191 50 255  191 50 255  191 50 255  191 50 255  191 50 255  191 50 255  191 50 255  191 50 255  191 50 255  191 50 255  191 50 255  191 50 255  191 50 255  191 50 255  191 50 255  191 50 255  191 50 255  191 50 255  191 50 255  191 50 255  191 50 255  191 50 255  
49 77 121  49 77 121  49 77 121  49 77 121  49 77 121  49 77 121  49 77 121  49 77 121  49 77 121  49 77 121  49 77 121  49 77 121  49 77 121  49 77 121  0 204 204  0 255 217  0 255 217  0 255 217  0 255 217  0 255 217  0 255 217  0 255 217  0 255 217  0 255 217  0 255 217  0 204 204  0 204 204  191 50 255  191 50 255  191 50 255  191 50 255  191 50 255  191 50 255  191 50 255  191 50 255  191 50 255  191 50 255  191 50 255  191 50 255  191 50 255  191 50 255  191 50 255  191 50 255  191 50 255  191 50 255  191 50 255  191 50 255  191 50 255  191 50 255  191 50 255  191 50 255  
49 77 121  49 77 121  49 77 121  49 77 121  49 77 121  49 77 121  49 77 121  49 77 121  49 77 121  49 77 121  49 77 121  49 77 121  0 255 217  0 255 217  0 255 217  0 255 217  0 255 217  0 255 217  0 255 217  0 255 217  0 255 217  0 255 217  0 255 217  0 255 217  0 255 217  0 255 217  0 255 217  0 255 217  191 50 255  191 50 255  191 50 255  191 50 255  191 50 255  191 50 255  191 50 255  191 50 255  191 50 255  191 50 255  191 50 255  191 50 255  191 50 255  191 50 255  191 50 255  191 50 255  191 50 255  191 50 255  191 50 255  191 50 255  191 50 255  191 50 255  191 50 255  
49 77 121  49 77 121  49 77 121  49 77 121  49 77 121  49 77 121  49 77 121  49 77 121  49 77 121  49 77 121  49 77 121  0 255 217  0 255 217  0 255 217  0 255 217  0 255 217  0 255 217  0 255 217  0 255 217  0 255 217  0 255 217  0 255 217  0 255 217  0 255 217  0 255 217  0 255 217  0 255 217  0 255 217  0 255 217  191 50 255  191 50 255  191 50 255  191 50 255  191 50 255  191 50 255  191 50 255  191 50 255  191 50 255  191 50 255  191 50 255  191 50 255  191 50 255  191 50 255  191 50 255  191 50 255  191 50 255  191 50 255  191 50 255  191 50 255  191 50 255  191 50 255  
49 77 121  49 77 121  49 77 121  49 77 121  49 77 121  49 77 121  49 77 121  49 77 121  49 77 121  49 77 121  49 77 121  0 255 217  0 255 217  0 255 217  0 255 217  0 255 217  0 255 217  0 255 217  0 255 217  0 255 217  0 255 217  0 255 217  0 255 217  0 255 217  0 255 217  0 255 217  0 255 217  0 255 217  0 255 217  0 255 217  191 50 255  191 50 255  191 50 255  191 50 255  191 50 255  191 50 255  191 50 255  191 50 255  191 50 255  191 50 255  191 50 255  191 50 255  191 50 255  191 50 255  191 50 255  191 50 255  191 50 255  191 50 255  191 50 255  191 50 255  191 50 255  
49 77 121  49 77 121  49 77 121  49 77 121  49 77 121  49 77 121  49 77 121  49 77 121  49 77 121  49 77 121  49 77 121  0 255 217  0 255 217  0 255 217  0 255 217  0 255 217  0 255 217  0 255 217  0 255 217  0 255 217  0 255 217  0 255 217  0 255 217  0 255 217  0 255 217  0 255 217  0 255 217  0 255 217  0 255 217  0 255 217  0 204 204  191 50 255  191 50 255  191 50 255  191 50 255  191 50 255  191 50 255  191 50 255  191 50 255  191 50 255  191 50 255  191 50 255  191 50 255  191 50 255  191 50 255  191 50 255  191 50 255  191 50 255  191 50 255  191 50 255  191 50 255  
49 77 121  49 77 121  49 77 121  49 77 121  49 77 121  49 77 121  49 77 121  49 77 121  49 77 121  49 77 121  49 77 121  0 255 217  0 255 217  0 255 217  0 255 217  0 255 217  0 255 217  0 255 217  0 255 217  0 255 217  0 255 217  0 255 217  0 255 217  0 255 217  0 255 217  0 255 217  0 255 217  0 255 217  0 255 217  0 255 217  0 204 204  49 77 121  191 50 255  191 50 255  191 50 255  191 50 255  191 50 255  191 50 255  191 50 255  191 50 255  191 50 255  191 50 255  191 50 255  191 50 255  191 50 255  191 50 255  191 50 255  191 50 255  191 50 255  191 50 255  191 50 255  
49 77 121  49 77 121  49 77 121  49 77 121  49 77 121  49 77 121  49 77 121  49 77 121  49 77 121  49 77 121  49 77 121  0 255 217  0 255 217  0 255 217  0 255 217  0 255 217  0 255 217  0 255 217  0 255 217  0 255 217  0 255 217  0 255 217  0 255 217  0 255 217  0 255 217  0 255 217  0 255 217  0 255 217  0 255 217  0 255 217  0 204 204  49 77 121  49 77 121  191 50 255  191 50 255  191 50 255  191 50 255  191 50 255  191 50 255  191 50 255  191 50 255  191 50 255  191 50 255  191 50 255  191 50 255  191 50 255  191 50 255  191 50 255  191 50 255  191 50 255  191 50 255  
49 77 121  49 77 121  49 77 121  49 77 121  49 77 121  49 77 121  49 77 121  49 77 121  49 77 121  49 77 121  49 77 121  0 255 217  0 255 217  0 255 217  0 255 217  0 255 217  0 255 217  0 255 217  0 255 217  0 255 217  0 255 217  0 255 217  0 255 217  0 255 217  0 255 217  0 255 217  0 255 217  0 255 217  0 255 217  0 255 217  49 77 121  49 77 121  49 77 121  191 50 255  191 50 255  191 50 255  191 50 255  191 50 255  191 50 255  191 50 255  191 50 255  191 50 255  191 50 255  191 50 255  191 50 255  191 50 255  191 50 255  191 50 255  191 50 255  191 50 255  191 50 255  
49 77 121  49 77 121  49 77 121  49 77 121  49 77 121  49 77 121  49 77 121  49 77 121  49 77 121  49 77 121  49 77 121  0 255 217  0 255 217  0 255 217  0 255 217  0 255 217  0 255 217  0 255 217  0 255 217  0 255 217  0 255 217  0 255 217  0 255 217  0 255 217  0 255 217  0 255 217  0 255 217  0 255 217  0 255 217  0 255 217  49 77 121  49 77 121  49 77 121  49 77 121  191 50 255  191 50 255  191 50 255  191 50 255  191 50 255  191 50 255  191 50 255  191 50 255  191 50 255  191 50 255  191 50 255  191 50 255  191 50 255  191 50 255  191 50 255  191 50 255  191 50 255  
49 77 121  49 77 121  49 77 121  49 77 121  49 77 121  49 77 121  49 77 121  49 77 121  49 77 121  49 77 121  49 77 121  0 255 217  0 255 217  0 255 217  0 255 217  0 255 217  0 255 217  0 255 217  0 255 217  0 255 217  0 255 217  0 255 217  0 255 217  0 255 217  0 255 217  0 255 217  0 255 217  0 255 217  0 255 217  0 255 217  49 77 121  49 77 121  49 77 121  49 77 121  255 55 153  191 50 255  191 50 255  191 50 255  191 50 255  191 50 255  191 50 255  191 50 255  191 50 255  191 50 255  191 50 255  191 50 255  191 50 255  191 50 255  191 50 255  191 50 255  191 50 255  
49 77 121  49 77 121  49 77 121  49 77 121  49 77 121  49 77 121  49 77 121  49 77 121  49 77 121  49 77 121  49 77 121  0 255 217  0 255 217  0 255 217  0 255 217  0 255 217  0 255 217  0 255 217  0 255 217  0 255 217  0 255 217  0 255 217  0 255 217  0 255 217  0 255 217  0 255 217  0 255 217  0 255 217  0 255 217  0 255 217  49 77 121  49 77 121  49 77 121  49 77 121  49 77 121  255 55 153  191 50 255  191 50 255  191 50 255  191 50 255  191 50 255  191 50 255  191 50 255  191 50 255  191 50 255  191 50 255  191 50 255  191 50 255  191 50 255  191 50 255  191 50 255  
49 77 121  49 77 121  49 77 121  49 77 121  49 77 121  49 77 121  49 77 121  49 77 121  49 77 121  49 77 121  49 77 121  0 255 217  0 255 217  0 255 217  0 255 217  0 255 217  0 255 217  0 255 217  0 255 217  0 255 217  0 255 217  0 255 217  0 255 217  0 255 217  0 255 217  0 255 217  0 255 217  0 255 217  0 255 217  0 255 217  49 77 121  49 77 121  49 77 121  49 77 121  49 77 121  255 55 153  255 55 153  191 50 255  191 50 255  191 50 255  191 50 255  191 50 255  191 50 255  191 50 255  191 50 255  191 50 255  191 50 255  191 50 255  191 50 255  191 50 255  191 50 255  
49 77 121  49 77 121  49 77 121  49 77 121  49 77 121  49 77 121  49 77 121  49 77 121  49 77 121  49 77 121  49 77 121  0 255 217  0 255 217  0 255 217  0 255 217  0 255 217  0 255 217  0 255 217  0 255 217  0 255 217  0 255 217  0 255 217  0 255 217  0 255 217  0 255 217  0 255 217  0 255 217  0 255 217  0 255 217  0 255 217  17 30 88  17 30 88  17 30 88  17 30 88  17 30 88  17 30 88  255 55 153  255 55 153  191 50 255  191 50 255  191 50 255  191 50 255  191 50 255  191 50 255  191 50 255  191 50 255  191 50 255  191 50 255  191 50 255  191 50 255  191 50 255  
49 77 121  49 77 121  49 77 121  49 77 121  49 77 121  49 77 121  49 77 121  49 77 121  49 77 121  17 30 88  17 30 88  0 255 217  0 255 217  0 255 217  0 255 217  0 255 217  0 255 217  0 255 217  0 255 217  0 255 217  0 255 217  0 255 217  0 255 217  0 255 217  0 255 217  0 255 217  0 255 217  0 255 217  0 255 217  0 255 217  17 30 88  17 30 88  17 30 88  17 30 88  17 30 88  17 30 88  17 30 88  17 30 88  255 55 153  191 50 255  191 50 255  191 50 255  191 50 255  191 50 255  191 50 255  191 50 255  191 50 255  191 50 255  191 50 255  191 50 255  191 50 255  
17 30 88  17 30 88  17 30 88  17 30 88  17 30 88  17 30 88  17 30 88  17 30 88  17 30 88  17 30 88  17 30 88  0 255 217  0 255 217  0 255 217  0 255 217  0 255 217  0 255 217  0 255 217  0 255 217  0 255 217  0 255 217  0 255 217  0 255 217  0 255 217  0 255 217  0 255 217  0 255 217  0 255 217  0 255 217  0 255 217  17 30 88  17 30 88  17 30 88  17 30 88  17 30 88  17 30 88  17 30 88  17 30 88  17 30 88  17 30 88  17 30 88  191 50 255  191 50 255  191 50 255  191 50 255  191 50 255  191 50 255  191 50 255  191 50 255  191 50 255  17 30 88  
17 30 88  17 30 88  17 30 88  17 30 88  17 30 88  17 30 88  17 30 88  17 30 88  17 30 88  17 30 88  17 30 88  17 30 88  0 255 217  0 255 217  0 255 217  0 255 217  0 255 217  0 255 217  0 255 217  0 255 217  0 255 217  0 255 217  0 255 217  0 255 217  0 255 217  0 255 217  0 255 217  0 255 217  0 255 217  17 30 88  17 30 88  17 30 88  17 30 88  17 30 88  17 30 88  17 30 88  17 30 88  17 30 88  17 30 88  17 30 88  17 30 88  17 30 88  17 30 88  17 30 88  17 30 88  17 30 88  17 30 88  17 30 88  17 30 88  17 30 88  17 30 88  
17 30 88  17 30 88  17 30 88  17 30 88  17 30 88  17 30 88  17 30 88  17 30 88  17 30 88  17 30 88  17 30 88  17 30 88  17 30 88  17 30 88  17 30 88  0 255 217  0 255 217  0 255 217  0 255 217  0 255 217  0 255 217  0 255 217  0 255 217  0 255 217  0 255 217  17 30 88  17 30 88  17 30 88  17 30 88  17 30 88  17 30 88  17 30 88  17 30 88  17 30 88  17 30 88  17 30 88  17 30 88  17 30 88  17 30 88  17 30 88  17 30 88  17 30 88  17 30 88  17 30 88  17 30 88  17 30 88  17 30 88  17 30 88  17 30 88  17 30 88  17 30 88  
17 30 88  17 30 88  17 30 88  17 30 88  17 30 88  17 30 88  17 30 88  17 30 88  17 30 88  17 30 88  17 30 88  17 30 88  17 30 88  17 30 88  17 30 88  17 30 88  17 30 88  17 30 88  0 255 217  0 255 217  0 255 217  17 30 88  17 30 88  17 30 88  17 30 88  17 30 88  17 30 88  17 30 88  17 30 88  17 30 88  17 30 88  17 30 88  17 30 88  17 30 88  17 30 88  17 30 88  17 30 88  17 30 88  17 30 88  17 30 88  17 30 88  17 30 88  17 30 88  17 30 88  17 30 88  17 30 88  17 30 88  17 30 88  17 30 88  17 30 88  17 30 88  
17 30 88  17 30 88  17 30 88  17 30 88  17 30 88  17 30 88  17 30 88  17 30 88  17 30 88  17 30 88  17 30 88  17 30 88  17 30 88  17 30 88  17 30 88  17 30 88  17 30 88  17 30 88  17 30 88  17 30 88  17 30 88  17 30 88  17 30 88  17 30 88  17 30 88  17 30 88  17 30 88  17 30 88  17 30 88  17 30 88  17 30 88  17 30 88  17 30 88  17 30 88  17 30 88  17 30 88  17 30 88  17 30 88  17 30 88  17 30 88  17 30 88  17 30 88  17 30 88  17 30 88  17 30 88  17 30 88  17 30 88  17 30 88  17 30 88  17 30 88  17 30 88  
17 30 88  17 30 88  17 30 88  17 30 88  17 30 88  17 30 88  17 30 88  17 30 88  17 30 88  17 30 88  17 30 88  17 30 88  17 30 88  17 30 88  17 30 88  17 30 88  17 30 88  17 30 88  17 30 88  17 30 88  17 30 88  17 30 88  17 30 88  17 30 88  17 30 88  17 30 88  17 30 88  17 30 88  17 30 88  17 30 88  17 30 88  17 30 88  17 30 88  17 30 88  17 30 88  17 30 88  17 30 88  17 30 88  17 30 88  17 30 88  17 30 88  17 30 88  17 30 88  17 30 88  17 30 88  17 30 88  17 30 88  17 30 88  17 30 88  17 30 88  17 30 88  
17 30 88  17 30 88  17 30 88  17 30 88  17 30 88  17 30 88  17 30 88  17 30 88  17 30 88  17 30 88  17 30 88  17 30 88  17 30 88  17 30 88  17 30 88  17 30 88  17 30 88  17 30 88  17 30 88  17 30 88  17 30 88  17 30 88  17 30 88  17 30 88  17 30 88  17 30 88  17 30 88  17 30 88  17 30 88  17 30 88  17 30 88  17 30 88  17 30 88  17 30 88  17 30 88  17 30 88  17 30 88  17 30 88  17 30 88  17 30 88  17 30 88  17 30 88  17 30 88  17 30 88  17 30 88  17 30 88  17 30 88  17 30 88  17 30 88  17 30 88  17 30 88  
17 30 88  17 30 88  17 30 88  17 30 88  17 30 88  17 30 88  17 30 88  17 30 88  17 30 88  17 30 88  17 30 88  17 30 88  17 30 88  17 30 88  17 30 88  17 30 88  17 30 88  17 30 88  17 30 88  17 30 88  17 30 88  17 30 88  17 30 88  17 30 88  17 30 88  17 30 88  17 30 88  17 30 88  17 30 88  17 30 88  17 30 88  17 30 88  17 30 88  17 30 88  17 30 88  17 30 88  17 30 88  17 30 88  17 30 88  17 30 88  17 30 88  17 30 88  17 30 88  17 30 88  17 30 88  17 30 88  17 30 88  17 30 88  17 30 88  17 30 88  17 30 88  
17 30 88  17 30 88  17 30 88  17 30 88  17 30 88  17 30 88  17 30 88  17 30 88  17 30 88  17 30 88  17 30 88  17 30 88  17 30 88  17 30 88  17 30 88  17 30 88  17 30 88  17 30 88  17 30 88  17 30 88  17 30 88  17 30 88  17 30 88  17 30 88  17 30 88  17 30 88  17 30 88  17 30 88  17 30 88  17 30 88  17 30 88  17 30 88  17 30 88  17 30 88  17 30 88  17 30 88  17 30 88  17 30 88  17 30 88  17 30 88  17 30 88  17 30 88  17 30 88  17 30 88  17 30 88  17 30 88  17 30 88  17 30 88  17 30 88  17 30 88  17 30 88  
17 30 88  17 30 88  17 30 88  17 30 88  17 30 88  17 30 88  17 30 88  17 30 88  17 30 88  17 30 88  17 30 88  17 30 88  17 30 88  17 30 88  17 30 88  17 30 88  17 30 88  17 30 88  17 30 88  17 30 88  17 30 88  17 30 88  17 30 88  17 30 88  17 30 88  17 30 88  17 30 88  17 30 88  17 30 88  17 30 88  17 30 88  17 30 88  17 30 88  17 30 88  17 30 88  17 30 88  17 30 88  17 30 88  17 30 88  17 30 88  17 30 88  17 30 88  17 30 88  17 30 88  17 30 88  17 30 88  17 30 88  17 30 88  17 30 88  17 30 88  17 30 88  
17 30 88  17 30 88  17 30 88  17 30 88  17 30 88  17 30 88  17 30 88  17 30 88  17 30 88  17 30 88  17 30 88  17 30 88  17 30 88  17 30 88  17 30 88  17 30 88  17 30 88  17 30 88  17 30 88  17 30 88  17 30 88  17 30 88  17 30 88  17 30 88  17 30 88  17 30 88  17 30 88  17 30 88  17 30 88  17 30 88  17 30 88  17 30 88  17 30 88  17 30 88  17 30 88  17 30 88  17 30 88  17 30 88  17 30 88  17 30 88  17 30 88  17 30 88  17 30 88  17 30 88  17 30 88  17 30 88  17 30 88  17 30 88  17 30 88  17 30 88  17 30 88  
17 30 88  17 30 88  17 30 88  17 30 88  17 30 88  17 30 88  17 30 88  17 30 88  17 30 88  17 30 88  17 30 88  17 30 88  17 30 88  17 30 88  17 30 88  17 30 88  17 30 88  17 30 88  17 30 88  17 30 88  17 30 88  17 30 88  17 30 88  17 30 88  17 30 88  17 30 88  17 30 88  17 30 88  17 30 88  17 30 88  17 30 88  17 30 88  17 30 88  17 30 88  17 30 88  17 30 88  17 30 88  17 30 88  17 30 88  17 30 88  17 30 88  17 30 88  17 30 88  17 30 88  17 30 88  17 30 88  17 30 88  17 30 88  17 30 88  17 30 88  17 30 88  
17 30 88  17 30 88  17 30 88  17 30 88  17 30 88  17 30 88  17 30 88  17 30 88  17 30 88  17 30 88  17 30 88  17 30 88  17 30 88  17 30 88  17 30 88  17 30 88  17 30 88  17 30 88  17 30 88  17 30 88  17 30 88  17 30 88  17 30 88  17 30 88  17 30 88  17 30 88  17 30 88  17 30 88  17 30 88  17 30 88  17 30 88  17 30 88  17 30 88  17 30 88  17 30 88  17 30 88  17 30 88  17 30 88  17 30 88  17 30 88  17 30 88  17 30 88  17 30 88  17 30 88  17 30 88  17 30 88  17 30 88  17 30 88  17 30 88  17 30 88  17 30 88  
17 30 88  17 30 88  17 30 88  17 30 88  17 30 88  17 30 88  17 30 88  17 30 88  17 30 88  17 30 88  17 30 88  17 30 88  17 30 88  17 30 88  17 30 88  17 30 88  17 30 88  17 30 88  17 30 88  17 30 88  17 30 88  17 30 88  17 30 88  17 30 88  17 30 88  17 30 88  17 30 88  17 30 88  17 30 88  17 30 88  17 30 88  17 30 88  17 30 88  17 30 88  17 30 88  17 30 88  17 30 88  17 30 88  17 30 88  17 30 88  17 30 88  17 30 88  17 30 88  17 30 88  17 30 88  17 30 88  17 30 88  17 30 88  17 30 88  17 30 88  17 30 88  
17 30 88  17 30 88  17 30 88  17 30 88  17 30 88  17 30 88  17 30 88  17 30 88  17 30 88  17 30 88  17 30 88  17 30 88  17 30 88  17 30 88  17 30 88  17 30 88  17 30 88  17 30 88  17 30 88  17 30 88  17 30 88  17 30 88  17 30 88  17 30 88  17 30 88  17 30 88  17 30 88  17 30 88  17 30 88  17 30 88  17 30 88  17 30 88  17 30 88  17 30 88  17 30 88  17 30 88  17 30 88  17 30 88  17 30 88  17 30 88  17 30 88  17 30 88  17 30 88  17 30 88  17 30 88  17 30 88  17 30 88  17 30 88  17 30 88  17 30 88  17 30 88  
17 30 88  17 30 88  17 30 88  17 30 88  17 30 88  17 30 88  17 30 88  17 30 88  17 30 88  17 30 88  17 30 88  17 30 88  17 30 88  17 30 88  17 30 88  17 30 88  17 30 88  17 30 88  17 30 88  17 30 88  17 30 88  17 30 88  17 30 88  17 30 88  17 30 88  17 30 88  17 30 88  17 30 88  17 30 88  17 30 88  17 30 88  17 30 88  17 30 88  17 30 88  17 30 88  17 30 88  17 30 88  17 30 88  17 30 88  17 30 88  17 30 88  17 30 88  17 30 88  17 30 88  17 30 88  17 30 88  17 30 88  17 30 88  17 30 88  17 30 88  17 30 88  
17 30 88  17 30 88  17 30 88  17 30 88  17 30 88  17 30 88  17 30 88  17 30 88  17 30 88  17 30 88  17 30 88  17 30 88  17 30 88  17 30 88  17 30 88  17 30 88  17 30 88  17 30 88  17 30 88  17 30 88  17 30 88  17 30 88  17 30 88  17 30 88  17 30 88  17 30 88  17 30 88  17 30 88  17 30 88  17 30 88  17 30 88  17 30 88  17 30 88  17 30 88  17 30 88  17 30 88  17 30 88  17 30 88  17 30 88  17 30 88  17 30 88  17 30 88  17 30 88  17 30 88  17 30 88  17 30 88  17 30 88  17 30 88  17 30 88  17 30 88  17 30 88  
17 30 88  17 30 88  17 30 88  17 30 88  17 30 88  17 30 88  17 30 88  17 30 88  17 30 88  17 30 88  17 30 88  17 30 88  17 30 88  17 30 88  17 30 88  17 30 88  17 30 88  17 30 88  17 30 88  17 30 88  17 30 88  17 30 88  17 30 88  17 30 88  17 30 88  17 30 88  17 30 88  17 30 88  17 30 88  17 30 88  17 30 88  17 30 88  17 30 88  17 30 88  17 30 88  17 30 88  17 30 88  17 30 88  17 30 88  17 30 88  17 30 88  17 30 88  17 30 88  17 30 88  17 30 88  17 30 88  17 30 88  17 30 88  17 30 88  17 30 88  17 30 88  
17 30 88  17 30 88  17 30 88  17 30 88  17 30 88  17 30 88  17 30 88  17 30 88  17 30 88  17 30 88  17 30 88  17 30 88  17 30 88  17 30 88  17 30 88  17 30 88  17 30 88  17 30 88  17 30 88  17 30 88  17 30 88  17 30 88  17 30 88  17 30 88  17 30 88  17 30 88  17 30 88  17 30 88  17 30 88  17 30 88  17 30 88  17 30 88  17 30 88  17 30 88  17 30 88  17 30 88  17 30 88  17 30 88  17 30 88  17 30 88  17 30 88  17 30 88  17 30 88  17 30 88  17 30 88  17 30 88  17 30 88  17 30 88  17 30 88  17 30 88  17 30 88  
17 30 88  17 30 88  17 30 88  17 30 88  17 30 88  17 30 88  17 30 88  17 30 88  17 30 88  17 30 88  17 30 88  17 30 88  17 30 88  17 30 88  17 30 88  17 30 88  17 30 88  17 30 88  17 30 88  17 30 88  17 30 88  17 30 88  17 30 88  17 30 88  17 30 88  17 30 88  17 30 88  17 30 88  17 30 88  17 30 88  17 30 88  17 30 88  17 30 88  17 30 88  17 30 88  17 30 88  17 30 88  17 30 88  17 30 88  17 30 88  17 30 88  17 30 88  17 30 88  17 30 88  17 30 88  17 30 88  17 30 88  17 30 88  17 30 88  17 30 88  17 30 88  
